icons/accessibility-24.svg

<svg width="24" height="24" viewBox="0 0 24 24">
  <path
    d="M13.9737 8.11374C14.9374 7.47385 15.5727 6.37873 15.5727 5.13522C15.5727 3.16205 13.9732 1.5625 12 1.5625C10.0268 1.5625 8.42726 3.16205 8.42726 5.13522C8.42726 6.37873 9.06255 7.47385 10.0263 8.11374C9.72468 8.32397 9.4577 8.58139 9.23642 8.8761C9.23644 8.8761 9.2364 8.8761 9.23642 8.8761H3.70905C3.29484 8.8761 2.95905 9.21188 2.95905 9.6261C2.95905 10.0403 3.29484 10.3761 3.70905 10.3761H8.59373C8.58334 10.4382 8.57458 10.5009 8.5675 10.5642L7.75425 17.8305L7.25498 21.9728C7.20542 22.384 7.49861 22.7576 7.90985 22.8071C8.32108 22.8567 8.69464 22.5635 8.7442 22.1523L9.16427 18.6671H14.8357L15.2558 22.1523C15.3054 22.5635 15.6789 22.8567 16.0902 22.8071C16.5014 22.7576 16.7946 22.384 16.745 21.9728L16.2458 17.8305L15.4325 10.5642C15.4254 10.5009 15.4167 10.4382 15.4063 10.3761H20.2909C20.7052 10.3761 21.0409 10.0403 21.0409 9.6261C21.0409 9.21188 20.7052 8.8761 20.2909 8.8761H14.7636C14.7636 8.8761 14.7637 8.8761 14.7636 8.8761C14.5424 8.58139 14.2753 8.32397 13.9737 8.11374ZM14.0727 5.13522C14.0727 6.27995 13.1447 7.20794 12 7.20794C10.8553 7.20794 9.92726 6.27995 9.92726 5.13522C9.92726 3.99049 10.8553 3.0625 12 3.0625C13.1447 3.0625 14.0727 3.99049 14.0727 5.13522ZM13.9418 10.731L14.6621 17.1671H9.33786L10.0582 10.731C10.1689 9.74214 11.005 8.99438 12 8.99438C12.995 8.99438 13.8311 9.74214 13.9418 10.731Z"
  />
</svg>

<svg xmlns="http://www.w3.org/2000/svg" width="24" height="24" viewBox="0 0 24 24"><path d="M13.974 8.114a3.573 3.573 0 1 0-3.947 0c-.302.21-.57.467-.79.762H3.708a.75.75 0 1 0 0 1.5h4.885a2.93 2.93 0 0 0-.026.188l-.814 7.267-.499 4.142a.75.75 0 1 0 1.49.18l.42-3.486h5.67l.42 3.485a.75.75 0 0 0 1.49-.18l-.5-4.142-.813-7.266a3.502 3.502 0 0 0-.026-.188h4.885a.75.75 0 1 0 0-1.5h-5.527a3.466 3.466 0 0 0-.79-.762Zm.099-2.979a2.073 2.073 0 1 1-4.146 0 2.073 2.073 0 0 1 4.146 0Zm-.131 5.596.72 6.436H9.338l.72-6.436a1.954 1.954 0 0 1 3.884 0Z"/></svg>
